X: 1141
T: An Bríste Bréidín
R: slip jig
M: 9/8
K: Gmajor
|:B2A BGE G2A|BGE G2A BGE|BcA BGE G2B|AFD ~D3 AFD:|
|:dAF dAF G2A|BGE ~E3 BGE|de^c dAF GAB|AFD ~D3 AFD:|

